**kern	**kern	**fb
*part1	*part1	*part1
*staff2	*staff1	*
*I"Piano	*	*
*clefF4	*clefG2	*
*k[f#c#]	*k[f#c#]	*
=1	=1	=1
.	(4qqe/	5
4D	2f#)	.
4F#	.	.
4A	4r	.
=	=	=
4B	4dd	6
4A	4cc#	6
4G	4b	6
=	=	=
2F#	4a	6
.	12r	.
.	12aL	.
.	12gJ	.
4D	12f#L	5
.	12e	.
.	12dJ	.
=	=	=
4G	12bL	6
.	12a	.
.	12gJ	.
.	(4qqf#/	6 4
4A	2e)	.
4AA	.	5 3
=	=	=
4D	2d	.
4AA	.	.
4FF#	4dd	.
=	=	=
4DD	2aa	.
4F#	.	.
4G	(16bbLL	.
.	16ccc#J	.
.	8dddJ)	.
=	=	=
2.C#	4bb	.
.	4aa	.
.	4gg	.
=	=	=
*-	*-	*-
!!!system-decoration: {(s1,s2)}
